dist/img/user.svg

<svg width="20" height="22" viewBox="0 0 20 22" fill="none" xmlns="http://www.w3.org/2000/svg">
<path d="M9.62891 0C6.53788 0 4.20703 2.16095 4.20703 5.02639C4.20703 7.97575 6.63927 10.3749 9.62891 10.3749C12.6186 10.3749 15.0508 7.97575 15.0508 5.02663C15.0508 2.16095 12.72 0 9.62891 0ZM9.62891 8.76367C7.50137 8.76367 6.16482 6.77815 6.16482 5.02639C6.16482 2.92214 7.87622 1.75273 9.62891 1.75273C11.549 1.75273 13.1758 3.48356 13.1758 5.02639C13.1758 6.98902 11.7565 8.76367 9.62891 8.76367Z" fill="#262626"/>
<path d="M10 11.6641C3.55144 11.6641 0 14.7147 0 20.2542C0 20.6868 0.350646 21.0375 0.783285 21.0375H19.2167C19.6494 21.0375 20 20.6868 20 20.2542C20 14.715 16.4486 11.6641 10 11.6641ZM1.75273 19.4709C2.10328 15.4297 4.5422 13.677 9.81531 13.677C15.0884 13.677 17.7599 15.3291 18.0683 19.4709H1.75273Z" fill="#262626"/>
</svg>

<svg width="20" height="22" fill="none" xmlns="http://www.w3.org/2000/svg"><path d="M9.629 0C6.538 0 4.207 2.161 4.207 5.026c0 2.95 2.432 5.349 5.422 5.349 2.99 0 5.422-2.4 5.422-5.348C15.05 2.16 12.72 0 9.629 0zm0 8.764c-2.128 0-3.464-1.986-3.464-3.738 0-2.104 1.711-3.273 3.464-3.273 1.92 0 3.547 1.73 3.547 3.273 0 1.963-1.42 3.738-3.547 3.738zm.371 2.9c-6.449 0-10 3.05-10 8.59 0 .433.35.784.783.784h18.434a.784.784 0 00.783-.784c0-5.539-3.551-8.59-10-8.59zm-8.247 7.807c.35-4.041 2.79-5.794 8.062-5.794 5.273 0 7.945 1.652 8.253 5.794H1.753z" fill="#262626"/></svg>
